X:30
T:March. JGi.030
M:C|
L:1/8
Q:1/4=120
S:Joshua Gibbons MS,1823,Tealby,Lincs.
R:march
O:Tealby,Lincolnshire
Z:VMP/R.Greig, 2009
K:C
GA/2B/2|c2C2E2G2|c2c>cc3e|d2G>fe2G>f|egfe dGAB|
c2C2E2G2|c2c>cc3e|d3g f>ag>f|g2G>GG2:|
|:(G/A/B/c/)d2d>dd2c>d|e2e>ee2c>B|A2B>cd dcBA|G2E>EE2G2|
AEcA BEdB|cEdB cEfd|(3ega (3fed c2B2|A2A>AA2GA/2B/2|
c2C>cc2cd/2e/2|d2D>DD2z2|de/2f/2|ecdB cAdc|
B2G>GG2E2|FAdc BAGF|EGcB AGFE|(3DcB (3AGF E2D2|C2C>CC2:|

